src/assets/svgs/julia-icon.svg

<svg width="154" height="99" viewBox="0 0 154 99" fill="none" xmlns="http://www.w3.org/2000/svg">
<g clip-path="url(#clip0)">
<path d="M93.14 80.94H80.14V21.13L93.14 17.55V80.94Z" fill="white"/>
<path d="M22.17 36.33C20.4098 36.33 18.689 35.808 17.2254 34.8301C15.7619 33.8521 14.6211 32.4621 13.9475 30.8359C13.2739 29.2096 13.0976 27.4201 13.441 25.6937C13.7844 23.9673 14.6321 22.3814 15.8768 21.1368C17.1215 19.8921 18.7073 19.0444 20.4337 18.701C22.1602 18.3576 23.9496 18.5339 25.5759 19.2075C27.2022 19.8811 28.5922 21.0218 29.5701 22.4854C30.548 23.949 31.07 25.6697 31.07 27.43C31.0674 29.7896 30.1289 32.0518 28.4604 33.7203C26.7918 35.3888 24.5296 36.3274 22.17 36.33Z" fill="white"/>
<path d="M29.14 80.83C29.2455 83.9399 28.8021 87.044 27.83 90C27.1376 92.0961 25.8859 93.9633 24.21 95.4C22.5826 96.7337 20.641 97.6287 18.57 98C16.1586 98.4681 13.7063 98.6926 11.25 98.67C9.63443 98.6867 8.02177 98.5291 6.44 98.2C5.20468 97.9505 4.0122 97.5227 2.9 96.93C2.04831 96.4899 1.31449 95.8521 0.759998 95.07C0.273461 94.443 0.00643099 93.6736 -1.5983e-06 92.88C-0.00915012 92.2328 0.129283 91.5921 0.404787 91.0064C0.68029 90.4208 1.08562 89.9056 1.59 89.5C2.82315 88.5423 4.36105 88.0628 5.92 88.15C6.55804 88.1363 7.1928 88.245 7.79 88.47C8.30045 88.6669 8.78158 88.9327 9.22 89.26C9.62972 89.5908 10.0172 89.9483 10.38 90.33C10.69 90.73 10.97 91.1 11.21 91.45C11.6366 92.0362 12.1451 92.5582 12.72 93C13.0604 93.2342 13.4577 93.3724 13.87 93.4C14.2232 93.4041 14.5702 93.3069 14.87 93.12C15.2055 92.8692 15.4539 92.5195 15.58 92.12C15.7996 91.5045 15.9342 90.8619 15.98 90.21C16.1009 89.1947 16.1544 88.1724 16.14 87.15V40.48L29.14 36.9V80.83Z" fill="white"/>
<path d="M48.14 37.94V68C48.1355 68.8201 48.2953 69.6327 48.61 70.39C48.958 71.0854 49.4289 71.7122 50 72.24C50.5897 72.7739 51.266 73.2034 52 73.51C52.7595 73.83 53.5758 73.9932 54.4 73.99C54.9579 73.965 55.5053 73.829 56.01 73.59C56.6548 73.294 57.2596 72.9177 57.81 72.47C58.4634 71.9738 59.0693 71.4181 59.62 70.81C60.2277 70.1638 60.7672 69.4567 61.23 68.7V37.94H74.23V80.94H61.23V76.94C59.6 78.3727 57.771 79.5617 55.8 80.47C54.0486 81.2886 52.1431 81.7249 50.21 81.75C48.1989 81.7786 46.1994 81.4397 44.31 80.75C42.5628 80.0801 40.9504 79.1012 39.55 77.86C38.2208 76.6569 37.1433 75.2022 36.38 73.58C35.6121 71.9228 35.2194 70.1165 35.23 68.29V37.94H48.14Z" fill="white"/>
<path d="M105.79 36.33C104.03 36.328 102.31 35.8044 100.848 34.8252C99.3859 33.8461 98.2467 32.4554 97.5746 30.829C96.9025 29.2025 96.7277 27.4134 97.0722 25.6876C97.4168 23.9618 98.2652 22.3769 99.5103 21.1332C100.755 19.8895 102.341 19.0429 104.067 18.7003C105.794 18.3577 107.583 18.5345 109.208 19.2084C110.834 19.8824 112.223 21.0231 113.201 22.4865C114.178 23.9498 114.7 25.6702 114.7 27.43C114.697 29.7914 113.757 32.0551 112.087 33.7239C110.416 35.3926 108.151 36.33 105.79 36.33Z" fill="white"/>
<path d="M127.18 36.33C125.42 36.328 123.7 35.8044 122.238 34.8252C120.776 33.8461 119.637 32.4554 118.965 30.829C118.293 29.2025 118.118 27.4134 118.462 25.6876C118.807 23.9618 119.655 22.3769 120.9 21.1332C122.145 19.8895 123.731 19.0429 125.457 18.7003C127.184 18.3577 128.972 18.5345 130.598 19.2084C132.224 19.8824 133.613 21.0231 134.591 22.4865C135.568 23.9498 136.09 25.6702 136.09 27.43C136.087 29.7914 135.147 32.0551 133.477 33.7239C131.806 35.3926 129.541 36.33 127.18 36.33V36.33Z" fill="white"/>
<path d="M116.49 17.8C114.73 17.8 113.009 17.278 111.545 16.3001C110.082 15.3221 108.941 13.9321 108.267 12.3059C107.594 10.6796 107.418 8.89013 107.761 7.1637C108.104 5.43727 108.952 3.85144 110.197 2.60675C111.441 1.36207 113.027 0.514423 114.754 0.171015C116.48 -0.172393 118.27 0.00385624 119.896 0.677476C121.522 1.3511 122.912 2.49183 123.89 3.95543C124.868 5.41903 125.39 7.13975 125.39 8.9C125.391 10.0691 125.162 11.2271 124.715 12.3074C124.268 13.3878 123.613 14.3695 122.786 15.1962C121.959 16.0229 120.978 16.6784 119.897 17.1252C118.817 17.572 117.659 17.8013 116.49 17.8Z" fill="white"/>
<path d="M100.14 40.6L113.14 37.02V80.94H100.14V40.6Z" fill="white"/>
<path d="M140.14 58.77C138.849 59.3226 137.591 59.9469 136.37 60.64C135.146 61.2952 133.988 62.0654 132.91 62.94C131.935 63.7018 131.076 64.6012 130.36 65.61C129.73 66.4629 129.381 67.4901 129.36 68.55C129.358 69.3411 129.465 70.1286 129.68 70.89C129.872 71.5668 130.166 72.2107 130.55 72.8C130.884 73.2911 131.3 73.7207 131.78 74.07C132.223 74.3791 132.75 74.5465 133.29 74.55C134.421 74.5083 135.519 74.1628 136.47 73.55C137.72 72.7913 138.928 71.9668 140.09 71.08L140.14 58.77ZM153.14 80.94H140.14V77.52C139.43 78.13 138.72 78.69 138.03 79.19C137.307 79.7112 136.537 80.1632 135.73 80.54C134.825 80.9352 133.879 81.2302 132.91 81.42C131.663 81.6444 130.397 81.7482 129.13 81.73C127.319 81.757 125.517 81.4763 123.8 80.9C122.332 80.3911 120.974 79.6071 119.8 78.59C118.721 77.606 117.865 76.4023 117.29 75.06C116.705 73.6779 116.409 72.1908 116.42 70.69C116.392 69.1674 116.703 67.6577 117.33 66.27C117.973 64.9452 118.836 63.7383 119.88 62.7C121.015 61.5961 122.281 60.6356 123.65 59.84C125.149 58.9708 126.702 58.1992 128.3 57.53C129.97 56.84 131.7 56.21 133.47 55.62L138.72 53.91L140.15 53.6V49.34C140.173 48.1747 140.025 47.0123 139.71 45.89C139.504 45.0437 139.111 44.2543 138.56 43.58C138.099 42.9833 137.478 42.5292 136.77 42.27C136.021 41.9963 135.228 41.8608 134.43 41.87C133.55 41.8478 132.673 41.9832 131.84 42.27C131.205 42.5056 130.633 42.8856 130.17 43.38C129.746 43.8311 129.434 44.3759 129.26 44.97C129.063 45.6181 128.969 46.2928 128.98 46.97C128.985 47.7619 128.891 48.5514 128.7 49.32C128.554 50.0475 128.242 50.7317 127.79 51.32C127.309 51.8892 126.694 52.3292 126 52.6C125.083 52.9819 124.093 53.1594 123.1 53.12C122.247 53.1303 121.398 52.995 120.59 52.72C119.889 52.456 119.241 52.0663 118.68 51.57C118.154 51.0684 117.724 50.4754 117.41 49.82C117.119 49.1301 116.969 48.3888 116.97 47.64C116.978 46.1388 117.513 44.6881 118.48 43.54C119.599 42.1794 120.979 41.0572 122.54 40.24C124.408 39.2639 126.399 38.544 128.46 38.1C130.795 37.5597 133.184 37.2912 135.58 37.3C138.228 37.2554 140.871 37.5375 143.45 38.14C145.408 38.577 147.269 39.3702 148.94 40.48C150.297 41.4061 151.392 42.6668 152.12 44.14C152.815 45.6465 153.157 47.2915 153.12 48.95L153.14 80.94Z" fill="white"/>
</g>
<defs>
<clipPath id="clip0">
<rect width="153.14" height="98.64" fill="white"/>
</clipPath>
</defs>
</svg>

<svg xmlns="http://www.w3.org/2000/svg" viewBox="0 0 153.14 98.64"><defs><style>.cls-1{fill:#1a1a1a}.cls-2{fill:#4d64ae}.cls-3{fill:#ca3c32}.cls-4{fill:#9259a3}.cls-5{fill:#399746}</style></defs><title>Asset 2</title><g id="Layer_2" data-name="Layer 2"><g id="Layer_1-2" data-name="Layer 1"><g id="layer1"><g id="g3855"><g id="g945"><g id="g984"><g id="g920"><path id="path3804" d="M93.14,80.94h-13V21.13l13-3.58Z" class="cls-1"/><g id="g898"><g id="g893"><path id="path19" d="M22.17,36.33a8.9,8.9,0,1,1,8.9-8.9A8.91,8.91,0,0,1,22.17,36.33Z" class="cls-2"/></g><path id="path3819" d="M29.14,80.83A26.48,26.48,0,0,1,27.83,90a12.12,12.12,0,0,1-3.62,5.4A12.33,12.33,0,0,1,18.57,98a36.64,36.64,0,0,1-7.32.67,22.47,22.47,0,0,1-4.81-.47A13,13,0,0,1,2.9,96.93,6,6,0,0,1,.76,95.07,3.62,3.62,0,0,1,0,92.88,4.26,4.26,0,0,1,1.59,89.5a6.47,6.47,0,0,1,4.33-1.35,5,5,0,0,1,1.87.32,6,6,0,0,1,1.43.79,12,12,0,0,1,1.16,1.07c.31.4.59.77.83,1.12A7.58,7.58,0,0,0,12.72,93a2.3,2.3,0,0,0,1.15.4,1.85,1.85,0,0,0,1-.28,2,2,0,0,0,.71-1,7.18,7.18,0,0,0,.4-1.91,23.12,23.12,0,0,0,.16-3.06V40.48l13-3.58Z" class="cls-1"/></g><path id="path3802" d="M48.14,37.94V68a6.14,6.14,0,0,0,.47,2.39A6.45,6.45,0,0,0,50,72.24a7,7,0,0,0,2,1.27,6.12,6.12,0,0,0,2.4.48,4.2,4.2,0,0,0,1.61-.4,8.42,8.42,0,0,0,1.8-1.12,13.27,13.27,0,0,0,1.81-1.66,12.92,12.92,0,0,0,1.61-2.11V37.94h13v43h-13v-4a22.47,22.47,0,0,1-5.43,3.53,13.62,13.62,0,0,1-5.59,1.28,16.52,16.52,0,0,1-5.9-1,15.59,15.59,0,0,1-4.76-2.89,13.56,13.56,0,0,1-3.17-4.28,12.41,12.41,0,0,1-1.15-5.29V37.94Z" class="cls-1"/><g id="g905"><g id="g890"><path id="path13" d="M105.79,36.33a8.9,8.9,0,1,1,8.91-8.9A8.91,8.91,0,0,1,105.79,36.33Z" class="cls-3"/><path id="path25" d="M127.18,36.33a8.9,8.9,0,1,1,8.91-8.9A8.91,8.91,0,0,1,127.18,36.33Z" class="cls-4"/><path id="path31" d="M116.49,17.8a8.9,8.9,0,1,1,8.9-8.9,8.89,8.89,0,0,1-8.9,8.9Z" class="cls-5"/></g><path id="path3823" d="M100.14,40.6l13-3.58V80.94h-13Z" class="cls-1"/></g><path id="path3808" d="M140.14,58.77a37.64,37.64,0,0,0-3.77,1.87,21.89,21.89,0,0,0-3.46,2.3,12.77,12.77,0,0,0-2.55,2.67,5.12,5.12,0,0,0-1,2.94,8.53,8.53,0,0,0,.32,2.34,7,7,0,0,0,.87,1.91,5.15,5.15,0,0,0,1.23,1.27,2.67,2.67,0,0,0,1.51.48,6.3,6.3,0,0,0,3.18-1,41.31,41.31,0,0,0,3.62-2.47Zm13,22.17h-13V77.52c-.71.61-1.42,1.17-2.11,1.67a14.2,14.2,0,0,1-2.3,1.35,13.56,13.56,0,0,1-2.82.88,19.75,19.75,0,0,1-3.78.31,16,16,0,0,1-5.33-.83,12.23,12.23,0,0,1-4-2.31,10.23,10.23,0,0,1-2.51-3.53,11,11,0,0,1-.87-4.37,10.27,10.27,0,0,1,.91-4.42,13.11,13.11,0,0,1,2.55-3.57,19.36,19.36,0,0,1,3.77-2.86,40.26,40.26,0,0,1,4.65-2.31c1.67-.69,3.4-1.32,5.17-1.91l5.25-1.71,1.43-.31V49.34a11.91,11.91,0,0,0-.44-3.45,5.82,5.82,0,0,0-1.15-2.31,4,4,0,0,0-1.79-1.31,6.6,6.6,0,0,0-2.34-.4,7.38,7.38,0,0,0-2.59.4,4.37,4.37,0,0,0-1.67,1.11,3.94,3.94,0,0,0-.91,1.59,6.52,6.52,0,0,0-.28,2,9.51,9.51,0,0,1-.28,2.35,4.85,4.85,0,0,1-.91,2A4.47,4.47,0,0,1,126,52.6a6.84,6.84,0,0,1-2.9.52,7.51,7.51,0,0,1-2.51-.4,6.16,6.16,0,0,1-1.91-1.15,6,6,0,0,1-1.27-1.75,5.59,5.59,0,0,1-.44-2.18,6.42,6.42,0,0,1,1.51-4.1,13.16,13.16,0,0,1,4.06-3.3,23.45,23.45,0,0,1,5.92-2.14,31.07,31.07,0,0,1,7.12-.8,32.21,32.21,0,0,1,7.87.84,16.37,16.37,0,0,1,5.49,2.34,9.55,9.55,0,0,1,3.18,3.66,10.91,10.91,0,0,1,1,4.81Z" class="cls-1"/></g></g></g></g></g></g></g></svg>
